X:137
T:An P\'aist\'in Fionn
R:hornpipe
H:See also slow air#19
Z:id:hn-hornpipe-137
M:C|
L:1/8
K:Edor
(3Bcd | egfe de (3fed | gbag f2gf | efed BAGA | BdcA B2 (3Bcd |
egfe defd | gbag f2gf | efed BAFB |1 E2ED E2 :|2 E2ED E2 ||
|: EF | GABc dBBd | cAAc dBBA | GABc dBBA | Beed e2EF |
GABc dBBA | Beef g2gf | efed BAFB |1 E2ED E2EF :|2 E2ED E2 || 

